X:3179
T: Polska efter Päckos Olle el Junkas Jonas
R: Polska
O: Bingsjö, Dalarna
S: Utlärd av Jonas Hjalmarsson
Z: Karin Arén
M: 3/4
L: 1/8
K: Am
E2|: A>B cc/A/ BB/^G/ | A>c e^f/e/ dc/B/ | c>e g/a/g/e/ ^ff/d/ |1 c/B/c/e/ d/c/B/A/ ^GE :|2 c/B/c/e/ d2 c>e |:
g>e ce/g/ c'b | a>g f/g/f/e/ d/^c/d/e/ | ^f/a/f/d/ B/G/B/d/ g2 | g/^f/e/d/ c2 c/B/A/^G/ | 
A>B cc/A/ BB/^G/ | A/^G/A/B/ c/B/c/d/ ea | e/^f/e/d/ c/d/c/B/ A^G | (^GA) A4 :|
(:musicend:)



(:music:)
